RestoDelMundo/Paises Bajos/Otras Categorias/Nac Fc.svg

<svg xmlns="http://www.w3.org/2000/svg" viewBox="0 0 792 612"><path fill="#fff" stroke="#000" stroke-width="2.635" d="M14.019 6.87h490.095v316.19s0 194.983-245.048 231.873c0 0-245.047-43.778-245.047-231.873z"/><path fill="#fff" d="M28.721 191.752h230.606l-.262 346.739S28.721 497.337 28.721 320.53z"/><path fill="#f9df61" d="M489.909 191.752H259.282l.264 346.739s212.948-9.909 230.363-217.961z"/><path stroke="#000" stroke-width="14.053" d="M28.721 23.312h460.691v168.441H28.721Z"/><path fill="#f9df61" stroke="#000" stroke-width="10.54" d="m28.816 312.966 42.732-22.403 13.672 21.138-53.913 40.418ZM92.627 330.085l7.905 6.149L72.99 439.456c-15.509-18.022-28.21-39.074-35.967-63.602 20.032-16.77 55.604-45.769 55.604-45.769z"/><path fill="#fff" stroke="#000" stroke-width="10.54" d="m424.691 330.085-7.905 6.149 27.543 103.221c15.508-18.022 28.209-39.074 35.966-63.602-20.032-16.769-55.604-45.768-55.604-45.768zM488.499 312.966l-42.729-22.403-13.671 21.138 53.909 40.418Z"/><path fill="#f9df61" stroke="#000" stroke-width="10.54" d="M116.78 342.821h17.127l.261 147.301c-16.768-10.196-33.256-22.337-48.035-36.716zM28.721 291.441v-32.936l22.844-.001 12.082 16.3Z"/><path fill="#fff" stroke="#fff" stroke-width="5.27" d="M191.618 45.989c-13.592 1.44-20.5 2.261-20.5 26.309V180.4h-3.667L72.498 67.774h-.432v80.153c0 21.169 4.532 25.69 20.285 26.307v3.905H41.639v-3.905c16.401-1.029 20.933-4.109 20.933-26.307V57.293c-8.848-10.276-12.299-11.304-20.933-11.304v-3.904h36.9l82.65 98.856h.432V72.297c0-23.637-6.041-25.281-20.715-26.309v-3.904h50.711zM233.915 125.321l24.818-56.519 25.031 56.519zm105.742 48.913c-9.493-.617-12.515-2.877-19.422-17.882L266.502 39.618h-4.317l-44.886 100.91c-4.101 9.044-10.791 24.047-15.753 29.184-3.881 3.904-7.554 4.316-11.005 4.521v3.905h42.728v-3.905c-4.53 0-14.672 0-14.672-8.632 0-2.26.645-5.139 1.724-7.809l9.926-24.047h56.542l8.848 19.729c1.294 2.876 4.101 9.659 4.101 12.948 0 7.604-7.12 7.809-15.107 7.809v3.905h55.028v-3.902zM463.309 85.448c-5.392-21.579-20.931-38.019-47.476-38.019-10.791 0-23.306 4.109-32.37 12.536-8.417 7.81-17.91 20.963-17.91 50.559 0 43.569 25.68 61.451 52.869 61.451 26.546 0 42.08-14.593 48.77-20.757l3.884 3.698c-.213.412-18.775 26.101-58.483 26.101-34.742 0-72.076-19.729-72.076-70.905 0-46.037 36.256-70.906 73.372-70.906 19.206 0 33.234 6.783 37.98 6.783 1.08 0 8.202 0 9.925-6.783h4.536l1.938 46.242z"/><path fill="#f9df61" stroke="#000" stroke-width="10.54" d="m78.574 224.25-17.126 17.127s23.055 32.279 40.182 65.873c0 0 6.588 14.492 36.889 17.786h74.436v-27.007h-24.373v10.538h-27.666v-51.38h28.983v13.174h23.056v-28.325H97.018z"/><path fill="none" stroke="#000" stroke-width="5.27" d="m122.929 252.137-16.91 7.246"/><path fill="none" stroke="#000" stroke-width="7.905" d="m117.439 266.628-3.701-8.64"/><path fill="none" stroke="#000" stroke-width="10.54" d="M160.915 284.194h61.482l10.979-10.978"/><path fill="#f9df61" stroke="#000" stroke-width="10.54" d="M153.669 342.821v155.461l48.183-45.361-26.225-110.1ZM194.072 342.821l24.904 92.974 30.741-30.737-31.932-62.237Z"/><path fill="#fff" stroke="#000" stroke-width="10.54" d="M401.849 342.821h-17.127l-.261 151.954c16.768-10.197 33.26-26.99 48.036-41.37zM489.909 291.441v-32.936l-22.847-.001-12.08 16.3ZM440.055 224.25l17.126 17.127s-23.055 32.279-40.182 65.873c0 0-6.587 14.492-36.889 17.786h-74.436v-27.007h24.373v10.538h27.666v-51.38H328.73v13.174h-23.056v-28.325H421.61z"/><path fill="none" stroke="#000" stroke-width="5.27" d="m395.7 252.137 16.911 7.246"/><path fill="none" stroke="#000" stroke-width="7.905" d="m401.19 266.628 3.705-8.64"/><path fill="none" stroke="#000" stroke-width="10.54" d="M357.713 284.194h-61.481l-10.979-10.978"/><path fill="#fff" stroke="#000" stroke-width="10.54" d="M364.96 342.821v158.283l-48.181-48.183 26.223-110.1ZM324.557 342.821l-24.9 92.974-30.745-30.737 31.931-62.237Z"/><g fill="none" stroke="#ee6a40" stroke-width="5.27"><path d="m247.738 508.822 11.2-11.2 11.182 11.2M220.072 481.154l11.198-11.198-11.198-11.199M226.878 451.951l11.201 11.198 11.198-11.198M258.938 481.154l-11.2-11.198 11.2-11.199 11.182 11.199ZM278.354 500.587l-11.199-11.199 11.199-11.198 11.199 11.198M239.504 500.587l11.199-11.199-11.199-11.198-11.198 11.198M266.935 450.744l11.2 11.197 11.197-11.197M297.567 458.978l-11.198 11.198 11.198 11.198"/></g><path fill="#fff" d="M145.473 503.112h7.905v7.905h-7.905ZM365.489 507.065h7.904v7.904h-7.904Z"/><path fill="none" stroke="#000" stroke-width="14.053" d="M28.721 191.752h460.691V320.53s0 183.02-230.347 217.961c0 0-230.344-41.154-230.344-217.961z"/></svg>

<svg enable-background="new 0 0 792 612" viewBox="0 0 792 612" xmlns="http://www.w3.org/2000/svg"><path d="M 14.019 6.87 h 490.095 V 323.06 c 0 0 0 194.983 -245.048 231.873 c 0 0 -245.047 -43.778 -245.047 -231.873 V 6.87 z" fill="#fff" stroke="#000" stroke-width="2.6349"/><path d="M 28.721 191.752 h 230.606 l -.262 346.739 c 0 0 -230.344 -41.154 -230.344 -217.961 V 191.752 z" fill="#fff"/><path d="M 489.909 191.752 H 259.282 l .264 346.739 c 0 0 212.948 -9.909 230.363 -217.961 V 191.752 z" fill="#f9df61"/><path d="M 28.721 23.312 H 489.412 V 191.753 H 28.721 Z" stroke="#000" stroke-width="14.0529"/><path d="M 28.816 312.966 L 71.548 290.563 L 85.22 311.701 L 31.307 352.119 Z" fill="#f9df61" stroke="#000" stroke-width="10.5398"/><path d="M 92.627 330.085 l 7.905 6.149 L 72.99 439.456 c -15.509 -18.022 -28.21 -39.074 -35.967 -63.602 C 57.055 359.084 92.627 330.085 92.627 330.085 z" fill="#f9df61" stroke="#000" stroke-width="10.5398"/><path d="M 424.691 330.085 l -7.905 6.149 l 27.543 103.221 c 15.508 -18.022 28.209 -39.074 35.966 -63.602 C 460.263 359.084 424.691 330.085 424.691 330.085 z" fill="#fff" stroke="#000" stroke-width="10.5398"/><path d="M 488.499 312.966 L 445.77 290.563 L 432.099 311.701 L 486.008 352.119 Z" fill="#fff" stroke="#000" stroke-width="10.5398"/><path d="M 116.78 342.821 h 17.127 l .261 147.301 c -16.768 -10.196 -33.256 -22.337 -48.035 -36.716 L 116.78 342.821 z" fill="#f9df61" stroke="#000" stroke-width="10.5398"/><path d="M 28.721 291.441 L 28.721 258.505 L 51.565 258.504 L 63.647 274.804 Z" fill="#f9df61" stroke="#000" stroke-width="10.5398"/><path d="M 191.618 45.989 c -13.592 1.44 -20.5 2.261 -20.5 26.309 V 180.4 h -3.667 L 72.498 67.774 h -.432 v 80.153 c 0 21.169 4.532 25.69 20.285 26.307 v 3.905 H 41.639 v -3.905 c 16.401 -1.029 20.933 -4.109 20.933 -26.307 V 57.293 c -8.848 -10.276 -12.299 -11.304 -20.933 -11.304 v -3.904 h 36.9 l 82.65 98.856 h .432 V 72.297 c 0 -23.637 -6.041 -25.281 -20.715 -26.309 v -3.904 h 50.711 V 45.989 z" fill="#fff" stroke="#fff" stroke-width="5.2699"/><path d="M 233.915 125.321 l 24.818 -56.519 l 25.031 56.519 H 233.915 z M 339.657 174.234 c -9.493 -.617 -12.515 -2.877 -19.422 -17.882 L 266.502 39.618 h -4.317 l -44.886 100.91 c -4.101 9.044 -10.791 24.047 -15.753 29.184 c -3.881 3.904 -7.554 4.316 -11.005 4.521 v 3.905 h 42.728 v -3.905 c -4.53 0 -14.672 0 -14.672 -8.632 c 0 -2.26 .645 -5.139 1.724 -7.809 l 9.926 -24.047 h 56.542 l 8.848 19.729 c 1.294 2.876 4.101 9.659 4.101 12.948 c 0 7.604 -7.12 7.809 -15.107 7.809 v 3.905 h 55.028 V 174.234 z" fill="#fff" stroke="#fff" stroke-width="5.2699"/><path d="M 463.309 85.448 c -5.392 -21.579 -20.931 -38.019 -47.476 -38.019 c -10.791 0 -23.306 4.109 -32.37 12.536 c -8.417 7.81 -17.91 20.963 -17.91 50.559 c 0 43.569 25.68 61.451 52.869 61.451 c 26.546 0 42.08 -14.593 48.77 -20.757 l 3.884 3.698 c -.213 .412 -18.775 26.101 -58.483 26.101 c -34.742 0 -72.076 -19.729 -72.076 -70.905 c 0 -46.037 36.256 -70.906 73.372 -70.906 c 19.206 0 33.234 6.783 37.98 6.783 c 1.08 0 8.202 0 9.925 -6.783 h 4.536 l 1.938 46.242 H 463.309 z" fill="#fff" stroke="#fff" stroke-width="5.2699"/><path d="M 78.574 224.25 l -17.126 17.127 c 0 0 23.055 32.279 40.182 65.873 c 0 0 6.588 14.492 36.889 17.786 h 74.436 v -27.007 h -24.373 v 10.538 h -27.666 v -51.38 h 28.983 v 13.174 h 23.056 v -28.325 H 97.018 L 78.574 224.25 z" fill="#f9df61" stroke="#000" stroke-width="10.5398"/><path d="M 122.929 252.137 L 106.019 259.383" fill="none" stroke="#000" stroke-width="5.2699"/><path d="M 117.439 266.628 L 113.738 257.988" fill="none" stroke="#000" stroke-width="7.9048"/><path d="M 160.915 284.194 L 222.397 284.194 L 233.376 273.216" fill="none" stroke="#000" stroke-width="10.5398"/><path d="M 153.669 342.821 L 153.669 498.282 L 201.852 452.921 L 175.627 342.821 Z" fill="#f9df61" stroke="#000" stroke-width="10.5398"/><path d="M 194.072 342.821 L 218.976 435.795 L 249.717 405.058 L 217.785 342.821 Z" fill="#f9df61" stroke="#000" stroke-width="10.5398"/><path d="M 401.849 342.821 h -17.127 l -.261 151.954 c 16.768 -10.197 33.26 -26.99 48.036 -41.37 L 401.849 342.821 z" fill="#fff" stroke="#000" stroke-width="10.5398"/><path d="M 489.909 291.441 L 489.909 258.505 L 467.062 258.504 L 454.982 274.804 Z" fill="#fff" stroke="#000" stroke-width="10.5398"/><path d="M 440.055 224.25 l 17.126 17.127 c 0 0 -23.055 32.279 -40.182 65.873 c 0 0 -6.587 14.492 -36.889 17.786 h -74.436 v -27.007 h 24.373 v 10.538 h 27.666 v -51.38 H 328.73 v 13.174 h -23.056 v -28.325 H 421.61 L 440.055 224.25 z" fill="#fff" stroke="#000" stroke-width="10.5398"/><path d="M 395.7 252.137 L 412.611 259.383" fill="none" stroke="#000" stroke-width="5.2699"/><path d="M 401.19 266.628 L 404.895 257.988" fill="none" stroke="#000" stroke-width="7.9048"/><path d="M 357.713 284.194 L 296.232 284.194 L 285.253 273.216" fill="none" stroke="#000" stroke-width="10.5398"/><path d="M 364.96 342.821 L 364.96 501.104 L 316.779 452.921 L 343.002 342.821 Z" fill="#fff" stroke="#000" stroke-width="10.5398"/><path d="M 324.557 342.821 L 299.657 435.795 L 268.912 405.058 L 300.843 342.821 Z" fill="#fff" stroke="#000" stroke-width="10.5398"/><g><path d="M 247.738 508.822 L 258.938 497.622 L 270.12 508.822" fill="none" stroke="#ee6a40" stroke-width="5.2699"/><path d="M 220.072 481.154 L 231.27 469.956 L 220.072 458.757" fill="none" stroke="#ee6a40" stroke-width="5.2699"/><path d="M 226.878 451.951 L 238.079 463.149 L 249.277 451.951" fill="none" stroke="#ee6a40" stroke-width="5.2699"/><path d="M 258.938 481.154 L 247.738 469.956 L 258.938 458.757 L 270.12 469.956 Z" fill="none" stroke="#ee6a40" stroke-width="5.2699"/><path d="M 278.354 500.587 L 267.155 489.388 L 278.354 478.19 L 289.553 489.388" fill="none" stroke="#ee6a40" stroke-width="5.2699"/><path d="M 239.504 500.587 L 250.703 489.388 L 239.504 478.19 L 228.306 489.388" fill="none" stroke="#ee6a40" stroke-width="5.2699"/><path d="M 266.935 450.744 L 278.135 461.941 L 289.332 450.744" fill="none" stroke="#ee6a40" stroke-width="5.2699"/><path d="M 297.567 458.978 L 286.369 470.176 L 297.567 481.374" fill="none" stroke="#ee6a40" stroke-width="5.2699"/></g><path d="M 145.473 503.112 H 153.378 V 511.017 H 145.473 Z" fill="#fff"/><path d="M 365.489 507.065 H 373.393 V 514.969 H 365.489 Z" fill="#fff"/><path d="M 28.721 191.752 h 460.691 v 128.778 c 0 0 0 183.02 -230.347 217.961 c 0 0 -230.344 -41.154 -230.344 -217.961 V 191.752 z" fill="none" stroke="#000" stroke-width="14.0529"/></svg>
